-----BEGIN PGP PUBLIC KEY BLOCK-----

mQINBGqPHgoBEAC3/ZL/OrWemXlgR2EQ8rMDgsCrDwzOr7NxuFhRCi1do6zGlI4E
x2N2L4KyL1uTazqioQf7bwVkwsUjO8SKbXAVsCwtTL8j3deEz37IgzgRflVhf6za
AB2hqKdLyIgZlL8m1ynmOOLYCQyxcqslFvy0IOCzzavgty6AvWkS47umsKwVx30y
ffk3d41/CI8rqnjOmX1F9KTgGPPnbv1Kt6G5P4gxmJBHTauczzARtWaWdgH4ObFu
ZOPZBwktRv0WqLdcp7NAw4VeNrQcDpPso1x5wKP48EWsdzvSTyo8/CEAlTyMnU4D
WGZNAPIc36PWbp4zCrtAf45tF1FtErfcDhlFSs7HuANqqshLJxKS4J7bvbf6hIvj
fkk9Kma+48aESSBX2dNgRv0EVI+TDLT2Hnw5jTdQ2PTMNY6K2PdZDKp+AfschdRe
wTF5sWxERQNE/K135luy913TFCyPGEUH7Xpsi48IjctlOLhasSYPDG5RbvZ+rhez
5zKf6AGLo94F0RGgl+0PwooTFr59M6iyvFIt4d1UacoZ+7ah17Zr9gpSHnxgql2Q
siAOphBd20u8MW4Mqit2roUgPMU0lA3nOjpg2Y2rkpdBmne91Wk1iJr7JUBG6rIZ
rpccsSzT3GstwmKuPHn6dD1GoJfWiSDdOGhp72xEnVA3qz7VxwSlCs5TbwARAQAB
tCRpdG9iZXkgSGVsbSBDaGFydHMgPGhlbG1AaXRvYmV5LmRldj6JAnMEEwEIAF0W
IQRytVE8mv0NB2pKdPFlaM1IBpnwfAUCao8eChsUgAAAAAAEAA5tYW51MiwyLjUr
MS4xMiwyLDECGwMFCQlmAYAFCwkIBwICIgIGFQoJCAsCBBYCAwECHgcCF4AACgkQ
ZWjNSAaZ8Hw1sBAAgyFEzzGXUNy01w1a3ixrJQMUY1I1epRdyWt9F0Rn91pOlAqs
aRYYRfMPLlyWcWMlrva5d/9Y1+Xkm12La/4xnkBbnmSTwu+ecIEJmfi0FRhcPkJZ
QJiFzQ82KPPdYxxVWw636qLvzgE8s/DSE2TW6YmGde4Hxi7NnOkzQ3Kr82XMPyB0
5xGBkbFgelUDNjeg8hjIqjxq3JPHID+19xPM4QRgPyWxha+VUbHLXsNM08/hqnsv
6mGtECO1StUnUVKqE8u4s3sTUImRCeCsx/Vgbd6zRHDBjJ6Zojo4vQJhUXtXcnoz
p4mG95wI6nywMB1WLT4glwIxtY1LVe+odc2ISiCP0SssmJ+eOp1d3ZVRROm1157e
PofoQcNJKtpuJKiDA5drmAzjMIZNx4i2dZSGD8gF9RwKdlSJ4yM7iHiQgVd3W2JS
2cWBPnIE/SDrS7Wm0YTZNR9PFfLqPUmiemPfrE8XIKqfNgLBMWu+yXBdb1SfSAG1
d4uQKD1B9PeCJlIVIDP8VbYH0j95+LsHCS+V/Dv3ptVDvcxfwROKBLKyGRR+qqbU
6F/wpICNMi3Ou49CaH3A16GU+CNihblmCvvvUltFjvEjS1a+J64WYSlcDXCFGvYd
4k/aNfQ3EJd8QQ3utMUk8W13ZLl9fx2z3Z5FQMGadXc1pzprFfD3GeuLbJE=
=lEwX
-----END PGP PUBLIC KEY BLOCK-----
